resources/svg/bookmark-o.svg

<svg xmlns="http://www.w3.org/2000/svg" viewBox="0 0 15 15" fill="none"><path d="M12.5 14.5L12.1877 14.8904C12.3377 15.0105 12.5434 15.0339 12.7166 14.9507C12.8898 14.8674 13 14.6922 13 14.5H12.5ZM12.5 0.500011H13V1.10865e-05L12.5 1.05798e-05L12.5 0.500011ZM2.5 0.5L2.5 0L2 -5.36442e-07V0.5H2.5ZM2.5 14.5H2C2 14.6922 2.11017 14.8674 2.28341 14.9507C2.45664 15.0339 2.66226 15.0105 2.81235 14.8904L2.5 14.5ZM7.5 10.5L7.81235 10.1096C7.62974 9.96349 7.37026 9.96349 7.18765 10.1096L7.5 10.5ZM13 14.5V0.500011H12V14.5H13ZM2 0.5V14.5H3V0.5H2ZM2.81235 14.8904L7.81235 10.8904L7.18765 10.1096L2.18765 14.1096L2.81235 14.8904ZM7.18765 10.8904L12.1877 14.8904L12.8123 14.1096L7.81235 10.1096L7.18765 10.8904ZM12.5 1.05798e-05L2.5 0L2.5 1L12.5 1.00001L12.5 1.05798e-05Z" fill="black"/></svg>

<svg xmlns="http://www.w3.org/2000/svg" viewBox="0 0 15 15" fill="none"><path d="M12.5 14.5l-.312.39A.5.5 0 0013 14.5h-.5zm0-14h.5V0h-.5v.5zm-10 0V0H2v.5h.5zm0 14H2a.5.5 0 00.812.39L2.5 14.5zm5-4l.312-.39a.5.5 0 00-.624 0l.312.39zm5.5 4V.5h-1v14h1zM2 .5v14h1V.5H2zm.812 14.39l5-4-.624-.78-5 4 .624.78zm4.376-4l5 4 .624-.78-5-4-.624.78zM12.5 0h-10v1h10V0z" fill="currentColor"/></svg>
